img/logo.svg

<svg height="168.913" viewBox="0 0 142.53 168.913" width="142.53" xmlns="http://www.w3.org/2000/svg"><g fill="#231f20" stroke="#231f20" stroke-width="3" transform="translate(-132.57 -443.442)"><path d="m136.9 467.3a1.793 1.793 0 0 0 1.8-1.8v-15.4l55.4 34.7a1.689 1.689 0 0 0 1 .3 1.763 1.763 0 0 0 1.5-.8 1.808 1.808 0 0 0 -.6-2.5l-58.2-36.4a1.672 1.672 0 0 0 -1.8 0 1.7 1.7 0 0 0 -.9 1.6v18.6a1.845 1.845 0 0 0 1.8 1.7z"/><path d="m212 512.3a1.763 1.763 0 0 0 1.5.8 1.929 1.929 0 0 0 1-.3l13.3-8.3a1.806 1.806 0 0 0 0-3l-13.3-8.3a1.818 1.818 0 0 0 -1.9 3.1l10.8 6.8-10.8 6.8a1.674 1.674 0 0 0 -.6 2.4z"/><path d="m194.2 521.3-55.5 34.7v-72.2a1.8 1.8 0 0 0 -3.6 0v75.4a1.893 1.893 0 0 0 .9 1.6 1.486 1.486 0 0 0 .9.2 1.929 1.929 0 0 0 1-.3l58.2-36.4a1.777 1.777 0 1 0 -1.9-3z"/><path d="m271.7 524a1.792 1.792 0 0 0 1.8-1.8v-75.4a1.8 1.8 0 0 0 -2.7-1.6l-89.9 56.2a1.806 1.806 0 0 0 0 3l89.9 56.2a1.689 1.689 0 0 0 1 .3 2.919 2.919 0 0 0 .9-.2 1.7 1.7 0 0 0 .9-1.6v-18.6a1.8 1.8 0 0 0 -3.6 0v15.5l-84.7-53 84.7-53v72.2a1.653 1.653 0 0 0 1.7 1.8z"/></g><path d="m28.092-24.78c-1.223.058-3.3.087-5.285.087h-2.591l-4.892 12.579-5.634-12.666c-1.718.058-3.873.087-6.173.087-.888 0-1.878-.029-2.475-.087v.6c1.791.087 2.126.393 2.126 2.562v12.71c0 3.363-.306 4.251-2.126 4.644v.6c.6-.058 1.587-.087 2.475-.087 1.106 0 2.548.029 3.348.087v-.6c-2.838-.396-3.013-1.255-3.013-5.244v-13.336l8.401 19.144h.48l7.192-18.4v15.271c0 2.169-.393 2.475-2.417 2.562v.6c1.136-.058 3.159-.087 5.3-.087 1.98 0 4.062.029 5.285.087v-.6c-1.791-.087-2.111-.393-2.111-2.562v-14.792c0-2.169.291-2.475 2.111-2.562zm11.953 0c-1.165.058-3.13.087-4.979.087-2.155 0-4.178-.029-5.314-.087v.6c1.791.087 2.126.393 2.126 2.562v14.789c0 2.169-.306 2.475-2.126 2.562v.6c1.136-.058 3.159-.087 5.314-.087 1.849 0 3.814.029 4.979.087v-.6c-1.791-.087-2.126-.393-2.126-2.562v-14.792c0-2.169.306-2.475 2.126-2.562zm21.94 0c-.6.058-1.587.087-2.475.087-1.106 0-2.533-.029-3.334-.087v.6c2.824.393 3 1.252 3 5.241v7.039l-12.187-12.88c-.742.058-1.762.087-2.752.087-.888 0-1.878-.029-2.475-.087v.6c1.791.087 2.126.393 2.126 2.562v12.71c0 3.363-.306 4.251-2.126 4.644v.6c.6-.058 1.587-.087 2.475-.087 1.106 0 2.548.029 3.348.087v-.6c-2.839-.393-3.014-1.252-3.014-5.241v-8.595l13.206 14.43c.393-.029.757-.044 1.121-.044s.684.015.975.044v-15.869c0-3.363.291-4.251 2.111-4.644zm11.836 0c-1.165.058-3.13.087-4.979.087-2.155 0-4.178-.029-5.314-.087v.6c1.791.087 2.126.393 2.126 2.562v14.789c0 2.169-.306 2.475-2.126 2.562v.6c1.136-.058 3.159-.087 5.314-.087 1.849 0 3.814.029 4.979.087v-.6c-1.791-.088-2.121-.393-2.121-2.562v-14.792c0-2.169.306-2.475 2.126-2.562zm28.768 0c-1.223.058-3.3.087-5.285.087h-2.591l-4.892 12.579-5.634-12.666c-1.718.058-3.873.087-6.173.087-.888 0-1.878-.029-2.475-.087v.6c1.791.087 2.126.393 2.126 2.562v12.71c0 3.363-.306 4.251-2.126 4.644v.6c.6-.058 1.587-.087 2.475-.087 1.106 0 2.548.029 3.348.087v-.6c-2.839-.393-3.014-1.252-3.014-5.241v-13.339l8.401 19.144h.48l7.192-18.4v15.271c0 2.169-.393 2.475-2.417 2.562v.6c1.136-.058 3.159-.087 5.3-.087 1.98 0 4.062.029 5.285.087v-.6c-1.791-.087-2.111-.393-2.111-2.562v-14.792c0-2.169.291-2.475 2.111-2.562zm12.7 0c-.466.044-1.019.058-1.558.058s-1.092-.015-1.572-.058l-6.629 17.019c-.946 2.475-1.82 3.348-2.737 3.494v.6c.6-.058 1.514-.087 2.3-.087 1.369 0 2.417.029 3.9.087v-.6c-1.587-.058-2.693-.422-2.693-2.169a11.708 11.708 0 0 1 .961-3.887l.51-1.339h6.013l1.776 4.892a4.344 4.344 0 0 1 .364 1.412c0 .815-.684 1.034-2.1 1.092v.6c1.063-.058 2.985-.087 5.008-.087 1.965 0 3.989.029 5.43.087v-.6c-.539-.029-1.223-.539-1.762-1.907zm-1.7 12.52h-5.589l2.868-7.454zm21.285-12.52c-1.223.058-3.3.087-5.27.087-2.155 0-4.178-.029-5.314-.087v.6c1.791.087 2.126.393 2.126 2.562v14.789c0 2.169-.306 2.475-2.126 2.562v.6c3.465-.087 8.3-.087 10.439-.087 1.995 0 4.8 0 6.828.087-.2-2.082-.2-4.266-.2-5.314s.029-2.024.087-2.737h-.684c-.684 3.843-3.7 7.367-5.78 7.367h-.99c-1.281 0-1.529-.233-1.529-1.878v-15.392c0-2.169.393-2.475 2.417-2.562z" fill="#231e20" transform="translate(-.518 156.058)"/><path d="m.72-6.043a4.319 4.319 0 0 0 4.37 4.549 4.137 4.137 0 0 0 4.11-2.684h-1.043a3.124 3.124 0 0 1 -3.067 1.9 3.448 3.448 0 0 1 -3.45-3.77 3.452 3.452 0 0 1 3.45-3.778 3.108 3.108 0 0 1 3.067 1.926h1.043a4.125 4.125 0 0 0 -4.11-2.705 4.33 4.33 0 0 0 -4.37 4.562zm15.96-1.866c0 1.086-.652 1.878-2.108 1.878h-1.8v-3.718h1.789c1.506 0 2.119.716 2.119 1.84zm-4.8-2.594v8.932h.894v-3.729h1.648l2.211 3.731h1.067l-2.3-3.8a2.465 2.465 0 0 0 2.2-2.543c0-1.47-.971-2.594-3.041-2.594zm13.059-.013h-4.668v8.945h4.664v-.741h-3.77v-3.388h3.386v-.741h-3.386v-3.333h3.77zm8.613 8.945h.946l-3.246-8.817h-1.014l-3.259 8.817h.946l.775-2.121h4.064zm-1.052-2.862h-3.527l1.763-4.83zm3.68-5.329h2.492v8.191h.894v-8.191h2.479v-.738h-5.865zm8.178 8.191h.894v-8.929h-.894zm7-.971-2.924-7.958h-.971l3.386 8.932h1.022l3.387-8.932h-.946zm10.8-7.974h-4.664v8.945h4.664v-.741h-3.77v-3.388h3.386v-.741h-3.385v-3.333h3.77zm7.948 4.37v-3.6h1.8c1.508 0 2.1.664 2.1 1.815 0 1.1-.588 1.789-2.1 1.789zm4.817-1.789c0-1.47-.946-2.568-3.016-2.568h-2.7v8.932h.894v-3.808h1.8c2.099 0 3.023-1.111 3.023-2.555zm10.824 1.892a4.356 4.356 0 0 0 -4.421-4.562 4.363 4.363 0 0 0 -4.426 4.562 4.356 4.356 0 0 0 4.421 4.562 4.348 4.348 0 0 0 4.426-4.562zm-7.923 0a3.465 3.465 0 0 1 3.5-3.77 3.465 3.465 0 0 1 3.5 3.77 3.476 3.476 0 0 1 -3.5 3.782 3.476 3.476 0 0 1 -3.5-3.782zm15.258-1.866c0 1.086-.652 1.878-2.108 1.878h-1.8v-3.718h1.786c1.508 0 2.122.716 2.122 1.84zm-4.8-2.594v8.932h.894v-3.729h1.644l2.211 3.731h1.069l-2.3-3.8a2.465 2.465 0 0 0 2.2-2.54c0-1.47-.971-2.594-3.041-2.594zm7.756.741h2.492v8.191h.894v-8.191h2.476v-.738h-5.867zm8.178 8.191h.894v-4.114h3.322v-.741h-3.322v-3.336h3.936v-.738h-4.83zm15.628-4.472a4.356 4.356 0 0 0 -4.421-4.562 4.363 4.363 0 0 0 -4.423 4.562 4.356 4.356 0 0 0 4.421 4.562 4.348 4.348 0 0 0 4.418-4.562zm-7.923 0a3.465 3.465 0 0 1 3.5-3.77 3.465 3.465 0 0 1 3.5 3.77 3.476 3.476 0 0 1 -3.5 3.782 3.476 3.476 0 0 1 -3.504-3.782zm10.449-4.457v8.932h4.1v-.732h-3.207v-8.2zm6.274 8.932h.894v-8.932h-.894zm12.256-4.475a4.356 4.356 0 0 0 -4.421-4.562 4.363 4.363 0 0 0 -4.421 4.562 4.356 4.356 0 0 0 4.421 4.562 4.348 4.348 0 0 0 4.421-4.562zm-7.923 0a3.465 3.465 0 0 1 3.5-3.77 3.465 3.465 0 0 1 3.5 3.77 3.476 3.476 0 0 1 -3.5 3.782 3.476 3.476 0 0 1 -3.501-3.782z" fill="#b0b0b0" stroke="#b0b0b0" stroke-width=".5" transform="translate(-.47 170.144)"/></svg>

<svg xmlns="http://www.w3.org/2000/svg" width="142.53" height="168.913" viewBox="0 0 142.53 168.913">
  <g id="logo" transform="translate(-249.47 -451.942)">
    <g id="logos" transform="translate(116.9 8.5)">
      <g id="objetcs">
        <g id="Group_2" data-name="Group 2">
          <path id="Path_8" data-name="Path 8" d="M136.9,467.3a1.793,1.793,0,0,0,1.8-1.8V450.1l55.4,34.7a1.689,1.689,0,0,0,1,.3,1.763,1.763,0,0,0,1.5-.8,1.808,1.808,0,0,0-.6-2.5l-58.2-36.4a1.672,1.672,0,0,0-1.8,0,1.7,1.7,0,0,0-.9,1.6v18.6A1.845,1.845,0,0,0,136.9,467.3Z" fill="#231f20" stroke="#231f20" stroke-width="3"/>
          <path id="Path_9" data-name="Path 9" d="M212,512.3a1.763,1.763,0,0,0,1.5.8,1.929,1.929,0,0,0,1-.3l13.3-8.3a1.806,1.806,0,0,0,0-3l-13.3-8.3a1.818,1.818,0,0,0-1.9,3.1l10.8,6.8-10.8,6.8A1.674,1.674,0,0,0,212,512.3Z" fill="#231f20" stroke="#231f20" stroke-width="3"/>
          <path id="Path_10" data-name="Path 10" d="M194.2,521.3,138.7,556V483.8a1.8,1.8,0,0,0-3.6,0v75.4a1.893,1.893,0,0,0,.9,1.6,1.486,1.486,0,0,0,.9.2,1.929,1.929,0,0,0,1-.3l58.2-36.4a1.777,1.777,0,1,0-1.9-3Z" fill="#231f20" stroke="#231f20" stroke-width="3"/>
          <path id="Path_11" data-name="Path 11" d="M271.7,524a1.792,1.792,0,0,0,1.8-1.8V446.8a1.8,1.8,0,0,0-2.7-1.6l-89.9,56.2a1.806,1.806,0,0,0,0,3l89.9,56.2a1.689,1.689,0,0,0,1,.3,2.919,2.919,0,0,0,.9-.2,1.7,1.7,0,0,0,.9-1.6V540.5a1.8,1.8,0,0,0-3.6,0V556l-84.7-53L270,450v72.2A1.653,1.653,0,0,0,271.7,524Z" fill="#231f20" stroke="#231f20" stroke-width="3"/>
        </g>
      </g>
    </g>
    <path id="Path_13" data-name="Path 13" d="M28.092-24.78c-1.223.058-3.3.087-5.285.087H20.216L15.324-12.114,9.69-24.78c-1.718.058-3.873.087-6.173.087-.888,0-1.878-.029-2.475-.087v.6c1.791.087,2.126.393,2.126,2.562v12.71c0,3.363-.306,4.251-2.126,4.644v.6c.6-.058,1.587-.087,2.475-.087,1.106,0,2.548.029,3.348.087v-.6C4.027-4.66,3.852-5.519,3.852-9.508V-22.844L12.253-3.7h.48l7.192-18.4V-6.829c0,2.169-.393,2.475-2.417,2.562v.6c1.136-.058,3.159-.087,5.3-.087,1.98,0,4.062.029,5.285.087v-.6c-1.791-.087-2.111-.393-2.111-2.562V-21.621c0-2.169.291-2.475,2.111-2.562Zm11.953,0c-1.165.058-3.13.087-4.979.087-2.155,0-4.178-.029-5.314-.087v.6c1.791.087,2.126.393,2.126,2.562V-6.829c0,2.169-.306,2.475-2.126,2.562v.6c1.136-.058,3.159-.087,5.314-.087,1.849,0,3.814.029,4.979.087v-.6c-1.791-.087-2.126-.393-2.126-2.562V-21.621c0-2.169.306-2.475,2.126-2.562Zm21.94,0c-.6.058-1.587.087-2.475.087-1.106,0-2.533-.029-3.334-.087v.6c2.824.393,3,1.252,3,5.241V-11.9L46.989-24.78c-.742.058-1.762.087-2.752.087-.888,0-1.878-.029-2.475-.087v.6c1.791.087,2.126.393,2.126,2.562v12.71c0,3.363-.306,4.251-2.126,4.644v.6c.6-.058,1.587-.087,2.475-.087,1.106,0,2.548.029,3.348.087v-.6c-2.839-.393-3.014-1.252-3.014-5.241V-18.1L57.777-3.67c.393-.029.757-.044,1.121-.044s.684.015.975.044V-19.539c0-3.363.291-4.251,2.111-4.644Zm11.836,0c-1.165.058-3.13.087-4.979.087-2.155,0-4.178-.029-5.314-.087v.6c1.791.087,2.126.393,2.126,2.562V-6.829c0,2.169-.306,2.475-2.126,2.562v.6c1.136-.058,3.159-.087,5.314-.087,1.849,0,3.814.029,4.979.087v-.6C72.03-4.355,71.7-4.66,71.7-6.829V-21.621c0-2.169.306-2.475,2.126-2.562Zm28.768,0c-1.223.058-3.3.087-5.285.087H94.713L89.821-12.114,84.187-24.78c-1.718.058-3.873.087-6.173.087-.888,0-1.878-.029-2.475-.087v.6c1.791.087,2.126.393,2.126,2.562v12.71c0,3.363-.306,4.251-2.126,4.644v.6c.6-.058,1.587-.087,2.475-.087,1.106,0,2.548.029,3.348.087v-.6c-2.839-.393-3.014-1.252-3.014-5.241V-22.844L86.749-3.7h.48l7.192-18.4V-6.829c0,2.169-.393,2.475-2.417,2.562v.6c1.136-.058,3.159-.087,5.3-.087,1.98,0,4.062.029,5.285.087v-.6c-1.791-.087-2.111-.393-2.111-2.562V-21.621c0-2.169.291-2.475,2.111-2.562Zm12.7,0c-.466.044-1.019.058-1.558.058s-1.092-.015-1.572-.058L105.53-7.761c-.946,2.475-1.82,3.348-2.737,3.494v.6c.6-.058,1.514-.087,2.3-.087,1.369,0,2.417.029,3.9.087v-.6c-1.587-.058-2.693-.422-2.693-2.169a11.708,11.708,0,0,1,.961-3.887l.51-1.339h6.013l1.776,4.892a4.344,4.344,0,0,1,.364,1.412c0,.815-.684,1.034-2.1,1.092v.6c1.063-.058,2.985-.087,5.008-.087,1.965,0,3.989.029,5.43.087v-.6c-.539-.029-1.223-.539-1.762-1.907Zm-1.7,12.52H108l2.868-7.454Zm21.285-12.52c-1.223.058-3.3.087-5.27.087-2.155,0-4.178-.029-5.314-.087v.6c1.791.087,2.126.393,2.126,2.562V-6.829c0,2.169-.306,2.475-2.126,2.562v.6c3.465-.087,8.3-.087,10.439-.087,1.995,0,4.8,0,6.828.087-.2-2.082-.2-4.266-.2-5.314s.029-2.024.087-2.737h-.684c-.684,3.843-3.7,7.367-5.78,7.367h-.99c-1.281,0-1.529-.233-1.529-1.878V-21.621c0-2.169.393-2.475,2.417-2.562Z" transform="translate(248.952 608)" fill="#231e20"/>
    <path id="Path_12" data-name="Path 12" d="M.72-6.043A4.319,4.319,0,0,0,5.09-1.494,4.137,4.137,0,0,0,9.2-4.178H8.157a3.124,3.124,0,0,1-3.067,1.9,3.448,3.448,0,0,1-3.45-3.77A3.452,3.452,0,0,1,5.09-9.826,3.108,3.108,0,0,1,8.157-7.9H9.2A4.125,4.125,0,0,0,5.09-10.605,4.33,4.33,0,0,0,.72-6.043ZM16.68-7.909c0,1.086-.652,1.878-2.108,1.878h-1.8V-9.749h1.789C16.067-9.749,16.68-9.033,16.68-7.909Zm-4.8-2.594v8.932h.894V-5.3h1.648l2.211,3.731H17.7l-2.3-3.8a2.465,2.465,0,0,0,2.2-2.543c0-1.47-.971-2.594-3.041-2.594Zm13.059-.013H20.271v8.945h4.664v-.741h-3.77V-5.7h3.386v-.741H21.165V-9.774h3.77Zm8.613,8.945h.946l-3.246-8.817H30.238L26.979-1.571h.946L28.7-3.692h4.064ZM32.5-4.433H28.973l1.763-4.83Zm3.68-5.329h2.492v8.191h.894V-9.762h2.479V-10.5H36.18Zm8.178,8.191h.894V-10.5h-.894Zm7-.971L48.434-10.5h-.971l3.386,8.932h1.022L55.258-10.5h-.946Zm10.8-7.974H57.494v8.945h4.664v-.741h-3.77V-5.7h3.386v-.741H58.389V-9.774h3.77Zm7.948,4.37v-3.6h1.8c1.508,0,2.1.664,2.1,1.815,0,1.1-.588,1.789-2.1,1.789Zm4.817-1.789c0-1.47-.946-2.568-3.016-2.568h-2.7v8.932h.894V-5.379h1.8C74-5.379,74.924-6.49,74.924-7.934ZM85.747-6.043a4.356,4.356,0,0,0-4.421-4.562A4.363,4.363,0,0,0,76.9-6.043a4.356,4.356,0,0,0,4.421,4.562A4.348,4.348,0,0,0,85.747-6.043Zm-7.923,0a3.465,3.465,0,0,1,3.5-3.77,3.465,3.465,0,0,1,3.5,3.77,3.476,3.476,0,0,1-3.5,3.782A3.476,3.476,0,0,1,77.824-6.043ZM93.082-7.909c0,1.086-.652,1.878-2.108,1.878h-1.8V-9.749H90.96C92.468-9.749,93.082-9.033,93.082-7.909Zm-4.8-2.594v8.932h.894V-5.3H90.82l2.211,3.731H94.1l-2.3-3.8A2.465,2.465,0,0,0,94-7.909c0-1.47-.971-2.594-3.041-2.594Zm7.756.741h2.492v8.191h.894V-9.762H101.9V-10.5H96.033Zm8.178,8.191h.894V-5.685h3.322v-.741h-3.322V-9.762h3.936V-10.5h-4.83Zm15.628-4.472a4.356,4.356,0,0,0-4.421-4.562A4.363,4.363,0,0,0,111-6.043a4.356,4.356,0,0,0,4.421,4.562A4.348,4.348,0,0,0,119.839-6.043Zm-7.923,0a3.465,3.465,0,0,1,3.5-3.77,3.465,3.465,0,0,1,3.5,3.77,3.476,3.476,0,0,1-3.5,3.782A3.476,3.476,0,0,1,111.917-6.043ZM122.37-10.5v8.932h4.1V-2.3h-3.207v-8.2Zm6.274,8.932h.894V-10.5h-.894ZM140.9-6.043a4.356,4.356,0,0,0-4.421-4.562,4.363,4.363,0,0,0-4.421,4.562,4.356,4.356,0,0,0,4.421,4.562A4.348,4.348,0,0,0,140.9-6.043Zm-7.923,0a3.465,3.465,0,0,1,3.5-3.77,3.465,3.465,0,0,1,3.5,3.77,3.476,3.476,0,0,1-3.5,3.782A3.476,3.476,0,0,1,132.976-6.043Z" transform="translate(249 622.086)" fill="#b0b0b0" stroke="#b0b0b0" stroke-width="0.5"/>
  </g>
</svg>
